azure-patterns/svg-shapes.svg

<svg xmlns="http://www.w3.org/2000/svg" viewBox="0 0 44 38">
                                
                            
    <rect width="44" height="38" fill-opacity="0"></rect>
    <path d="M27.8652 17.6429C26.3613 20.2017 24.6426 23.1422 22.709 26.4643C20.7754 29.7865 19.0566 32.727 17.5527 35.2858H38.1777C36.6738 32.727 34.9551 29.7865 33.0215 26.4643C31.0879 23.1422 29.3691 20.2017 27.8652 17.6429ZM19.1855 24.3438C21.0618 22.4636 22 20.23 22 17.6429C22 15.0559 21.0618 12.8222 19.1855 10.942C17.2949 9.07595 15.0283 8.14292 12.3857 8.14292C9.74316 8.14292 7.47656 9.07595 5.58594 10.942C3.69531 12.8081 2.75 15.0488 2.75 17.6641C2.75 20.2795 3.69531 22.506 5.58594 24.3438C7.44792 26.2099 9.70736 27.1429 12.3643 27.1429C15.0212 27.1429 17.2949 26.2099 19.1855 24.3438ZM41.25 21.7143V2.71435H22V10.0726C23.8047 12.2638 24.7214 14.759 24.75 17.5581L27.8652 12.2143L33.4082 21.7143H41.25ZM12.375 5.42863C14.8672 5.42863 17.1589 6.11427 19.25 7.48555V6.16754e-05H44V24.4286H34.998L42.9473 38.0001H12.7832L18.5195 28.182C16.5716 29.2988 14.638 29.8572 12.7187 29.8572C10.7995 29.8572 9.09147 29.5427 7.59473 28.9136C6.09798 28.2845 4.77669 27.4045 3.63086 26.2735C2.48503 25.1425 1.59342 23.8349 0.956055 22.3505C0.318685 20.8661 0 18.8693 0 16.36C0 13.8507 1.21029 11.4015 3.63086 9.01234C6.05143 6.6232 8.96615 5.42863 12.375 5.42863Z"></path>
</svg>

<svg xmlns="http://www.w3.org/2000/svg" viewBox="0 0 44 38"><path fill="none" d="M0 0h44v38H0z"/><path d="M27.865 17.643c-1.504 2.559-3.222 5.5-5.156 8.821a2430.237 2430.237 0 0 1-5.156 8.822h20.625c-1.504-2.559-3.223-5.5-5.156-8.822a2438.085 2438.085 0 0 0-5.157-8.821zm-8.68 6.7c1.877-1.88 2.815-4.113 2.815-6.7 0-2.587-.938-4.82-2.814-6.701-1.891-1.866-4.158-2.8-6.8-2.8-2.643 0-4.91.934-6.8 2.8-1.89 1.866-2.836 4.107-2.836 6.722s.945 4.842 2.836 6.68c1.862 1.866 4.121 2.799 6.778 2.799 2.657 0 4.93-.933 6.822-2.8zm22.065-2.629v-19H22v7.359c1.805 2.19 2.721 4.686 2.75 7.485l3.115-5.344 5.543 9.5h7.842zM12.375 5.43c2.492 0 4.784.685 6.875 2.057V0H44V24.43h-9.002L42.948 38H12.782l5.737-9.818c-1.948 1.117-3.882 1.675-5.801 1.675-1.92 0-3.628-.314-5.124-.943a12.464 12.464 0 0 1-3.964-2.64A12.253 12.253 0 0 1 .956 22.35C.32 20.867 0 18.87 0 16.36c0-2.51 1.21-4.958 3.63-7.348C6.052 6.623 8.967 5.43 12.376 5.43z"/></svg>
